src/images/v2/github.svg

<svg fill="none" height="30" viewBox="0 0 33 30" width="33" xmlns="http://www.w3.org/2000/svg"><path clip-rule="evenodd" d="m16.29 0c-9.00001 0-16.29 6.73731-16.29 15.055 0 6.6541 4.66999 12.2916 11.14 14.2879.81.1386 1.11-.3235 1.11-.7301 0-.3605-.01-1.3031-.02-2.56-4.53001.9057-5.49001-2.0147-5.49001-2.0147-.74-1.7375-1.81-2.2088-1.81-2.2088-1.48-.9335.11-.915.11-.915 1.63.1109 2.5 1.5526 2.5 1.5526 1.45 2.3013 3.81001 1.6359 4.74001 1.2477.15-.9704.57-1.6358 1.03-2.0147-3.61001-.3697-7.41001-1.6636-7.41001-7.4305 0-1.645.63-2.9851 1.68-4.0387-.17-.38812-.73-1.91303.15-3.98321 0 0 1.37-.40664 4.48001 1.54339 1.3-.3327 2.69-.49906 4.08-.5083 1.38.00924 2.78.1756 4.08.5083 3.11-1.95003 4.48-1.54339 4.48-1.54339.89 2.07018.33 3.60433.16 3.98321 1.04 1.0536 1.67 2.3937 1.67 4.0387 0 5.7854-3.81 7.0516-7.44 7.4305.58.4621 1.11 1.3863 1.11 2.791 0 2.0147-.02 3.6321-.02 4.1311 0 .4067.29.8688 1.12.7209 6.47-1.9963 11.13-7.6338 11.13-14.2787 0-8.32689-7.29-15.0642-16.29-15.0642z" fill="#191919" fill-rule="evenodd"/></svg>

<svg width="33" height="30" viewBox="0 0 33 30" fill="none" xmlns="http://www.w3.org/2000/svg">
<path fill-rule="evenodd" clip-rule="evenodd" d="M16.29 0C7.28999 0 0 6.73731 0 15.055C0 21.7091 4.66999 27.3466 11.14 29.3429C11.95 29.4815 12.25 29.0194 12.25 28.6128C12.25 28.2523 12.24 27.3097 12.23 26.0528C7.69999 26.9585 6.73999 24.0381 6.73999 24.0381C5.99999 22.3006 4.92999 21.8293 4.92999 21.8293C3.44999 20.8958 5.03999 20.9143 5.03999 20.9143C6.66999 21.0252 7.53999 22.4669 7.53999 22.4669C8.98999 24.7682 11.35 24.1028 12.28 23.7146C12.43 22.7442 12.85 22.0788 13.31 21.6999C9.69999 21.3302 5.89999 20.0363 5.89999 14.2694C5.89999 12.6244 6.52999 11.2843 7.57999 10.2307C7.40999 9.84258 6.84999 8.31767 7.72999 6.24749C7.72999 6.24749 9.09999 5.84085 12.21 7.79088C13.51 7.45818 14.9 7.29182 16.29 7.28258C17.67 7.29182 19.07 7.45818 20.37 7.79088C23.48 5.84085 24.85 6.24749 24.85 6.24749C25.74 8.31767 25.18 9.85182 25.01 10.2307C26.05 11.2843 26.68 12.6244 26.68 14.2694C26.68 20.0548 22.87 21.321 19.24 21.6999C19.82 22.162 20.35 23.0862 20.35 24.4909C20.35 26.5056 20.33 28.123 20.33 28.622C20.33 29.0287 20.62 29.4908 21.45 29.3429C27.92 27.3466 32.58 21.7091 32.58 15.0642C32.58 6.73731 25.29 0 16.29 0Z" fill="#191919"/>
</svg>
